icons/svg/icons8/rugby.svg

<svg width="26" height="26" viewBox="0 0 26 26" fill="none" xmlns="http://www.w3.org/2000/svg">
<path d="M15.8669 16.01C15.4819 16.395 14.8549 16.393 14.4719 16.008L9.99289 11.529C9.60589 11.144 9.60589 10.518 9.99289 10.133L10.1329 9.993C10.5169 9.608 11.1439 9.608 11.5289 9.993L16.0069 14.473C16.3929 14.856 16.3939 15.483 16.0079 15.869L15.8669 16.01Z" fill="#333333"/>
<path d="M18.8669 13.01C18.4819 13.395 17.8549 13.393 17.4719 13.008L12.9929 8.529C12.6059 8.144 12.6059 7.518 12.9929 7.133L13.1329 6.993C13.5169 6.608 14.1439 6.608 14.5289 6.993L19.0069 11.473C19.3929 11.856 19.3939 12.483 19.0079 12.869L18.8669 13.01Z" fill="#333333"/>
<path d="M12.8669 19.01C12.4819 19.395 11.8549 19.393 11.4719 19.008L6.99289 14.529C6.60589 14.144 6.60589 13.518 6.99289 13.133L7.13289 12.993C7.51689 12.608 8.14389 12.608 8.52889 12.993L13.0069 17.473C13.3929 17.856 13.3939 18.483 13.0079 18.869L12.8669 19.01Z" fill="#333333"/>
<path d="M19.2761 2.342C21.2421 2.342 22.4031 2.805 22.7991 3.201C24.4181 4.821 24.1431 13.028 18.5851 18.586C14.8401 22.331 10.0051 23.665 6.72905 23.665C4.76405 23.665 3.60105 23.198 3.20105 22.799C1.58205 21.18 1.85805 12.973 7.41405 7.414C11.1541 3.674 15.9941 2.342 19.2761 2.342ZM19.2761 0.341995C15.2971 0.341995 9.98105 2.019 6.00005 6C-0.190948 12.193 -0.826949 21.598 1.78705 24.213C2.72105 25.147 4.51905 25.665 6.72905 25.665C10.7081 25.665 16.0181 23.981 20.0001 20C26.1931 13.807 26.8101 4.384 24.2141 1.787C23.2851 0.858995 21.4871 0.341995 19.2761 0.341995Z" fill="#333333"/>
<path d="M17.5 8.5L8.5 17.5" stroke="#333333" stroke-width="2" stroke-miterlimit="10" stroke-linecap="round" stroke-linejoin="round"/>
<path d="M23.5 2.5L19.5 6.5" stroke="#333333" stroke-width="2" stroke-miterlimit="10" stroke-linecap="round" stroke-linejoin="round"/>
<path d="M6.5 19.5L2.5 23.5" stroke="#333333" stroke-width="2" stroke-miterlimit="10" stroke-linecap="round" stroke-linejoin="round"/>
</svg>

<?xml version="1.0" encoding="utf-8"?>
<!-- Generator: Adobe Illustrator 15.0.0, SVG Export Plug-In . SVG Version: 6.00 Build 0)  -->
<!DOCTYPE svg PUBLIC "-//W3C//DTD SVG 1.1//EN" "http://www.w3.org/Graphics/SVG/1.1/DTD/svg11.dtd">
<svg version="1.1" id="Layer_1" xmlns="http://www.w3.org/2000/svg" xmlns:xlink="http://www.w3.org/1999/xlink" x="0px" y="0px"
	 width="26px" height="26px" viewBox="0 0 26 26" enable-background="new 0 0 26 26" xml:space="preserve">
<path fill="#333333" d="M15.867,16.01c-0.385,0.385-1.012,0.383-1.395-0.002l-4.479-4.479c-0.387-0.385-0.387-1.011,0-1.396
	l0.14-0.14c0.384-0.385,1.011-0.385,1.396,0l4.478,4.48c0.386,0.383,0.387,1.01,0.001,1.396L15.867,16.01z"/>
<path fill="#333333" d="M18.867,13.01c-0.385,0.385-1.012,0.383-1.395-0.002l-4.479-4.479c-0.387-0.385-0.387-1.011,0-1.396
	l0.14-0.14c0.384-0.385,1.011-0.385,1.396,0l4.478,4.48c0.386,0.383,0.387,1.01,0.001,1.396L18.867,13.01z"/>
<path fill="#333333" d="M12.867,19.01c-0.385,0.385-1.012,0.383-1.395-0.002l-4.479-4.479c-0.387-0.385-0.387-1.011,0-1.396
	l0.14-0.14c0.384-0.385,1.011-0.385,1.396,0l4.478,4.48c0.386,0.383,0.387,1.01,0.001,1.396L12.867,19.01z"/>
<rect fill="none" width="26" height="26"/>
<g>
	<g>
		<path fill="#333333" d="M19.276,2.342L19.276,2.342c1.966,0,3.127,0.463,3.523,0.859c1.619,1.62,1.344,9.827-4.214,15.385
			c-3.745,3.745-8.58,5.079-11.856,5.079c-1.965,0-3.128-0.467-3.528-0.866C1.582,21.18,1.858,12.973,7.414,7.414
			C11.154,3.674,15.994,2.342,19.276,2.342 M19.276,0.342C15.297,0.342,9.981,2.019,6,6c-6.191,6.193-6.827,15.598-4.213,18.213
			c0.934,0.934,2.732,1.452,4.942,1.452c3.979,0,9.289-1.684,13.271-5.665c6.193-6.193,6.81-15.616,4.214-18.213
			C23.285,0.859,21.487,0.342,19.276,0.342L19.276,0.342z"/>
	</g>
</g>
<line fill="none" stroke="#333333" stroke-width="2" stroke-linecap="round" stroke-linejoin="round" stroke-miterlimit="10" x1="17.5" y1="8.5" x2="8.5" y2="17.5"/>
<line fill="none" stroke="#333333" stroke-width="2" stroke-linecap="round" stroke-linejoin="round" stroke-miterlimit="10" x1="23.5" y1="2.5" x2="19.5" y2="6.5"/>
<line fill="none" stroke="#333333" stroke-width="2" stroke-linecap="round" stroke-linejoin="round" stroke-miterlimit="10" x1="6.5" y1="19.5" x2="2.5" y2="23.5"/>
</svg>
